contributed-vectors/husky.svg

<?xml version="1.0" encoding="UTF-8" standalone="no"?>
<svg
   xmlns:dc="http://purl.org/dc/elements/1.1/"
   xmlns:cc="http://creativecommons.org/ns#"
   xmlns:rdf="http://www.w3.org/1999/02/22-rdf-syntax-ns#"
   xmlns:svg="http://www.w3.org/2000/svg"
   xmlns="http://www.w3.org/2000/svg"
   xmlns:sodipodi="http://sodipodi.sourceforge.net/DTD/sodipodi-0.dtd"
   xmlns:inkscape="http://www.inkscape.org/namespaces/inkscape"
   viewBox="0 0 192 192"
   version="1.1"
   id="svg16"
   sodipodi:docname="husky.svg"
   inkscape:version="0.92.4 (5da689c313, 2019-01-14)">
  <metadata
     id="metadata20">
    <rdf:RDF>
      <cc:Work
         rdf:about="">
        <dc:format>image/svg+xml</dc:format>
        <dc:type
           rdf:resource="http://purl.org/dc/dcmitype/StillImage" />
        <dc:title></dc:title>
      </cc:Work>
    </rdf:RDF>
  </metadata>
  <sodipodi:namedview
     pagecolor="#ffffff"
     bordercolor="#666666"
     borderopacity="1"
     objecttolerance="10"
     gridtolerance="10"
     guidetolerance="10"
     inkscape:pageopacity="0"
     inkscape:pageshadow="2"
     inkscape:window-width="1920"
     inkscape:window-height="1017"
     id="namedview18"
     showgrid="true"
     inkscape:zoom="1.7383042"
     inkscape:cx="74.326419"
     inkscape:cy="105.18043"
     inkscape:window-x="-8"
     inkscape:window-y="-8"
     inkscape:window-maximized="1"
     inkscape:current-layer="svg16">
    <inkscape:grid
       type="xygrid"
       id="grid827"
       spacingx="4"
       spacingy="4" />
  </sodipodi:namedview>
  <defs
     id="defs4">
    <style
       id="style2">.a{fill:none;stroke:#b1b5bd;stroke-linecap:round;stroke-linejoin:round;isolation:isolate;opacity:0.63;}</style>
  </defs>
  <circle
     class="a"
     cx="96"
     cy="96"
     r="88"
     id="circle8"
     style="fill:#56595b;stroke:none;opacity:1" />
  <rect
     style="opacity:1;vector-effect:none;fill:#f8c18c;fill-opacity:1;fill-rule:evenodd;stroke:none;paint-order:stroke fill markers"
     id="rect829"
     width="8"
     height="8"
     x="80"
     y="108"
     ry="4" />
  <rect
     style="opacity:1;vector-effect:none;fill:#f8c18c;fill-opacity:1;fill-rule:evenodd;stroke:none;paint-order:stroke fill markers"
     id="rect831"
     width="8"
     height="8"
     x="104"
     y="108"
     ry="4" />
  <path
     style="fill:#f8c18c"
     d="M 76 56 C 60 70.451643 62.130859 100 62.130859 100 C 62.130859 100 60 104 60 112 C 60 120.43274 62.534904 120 68 136 C 68 136 72 128 72 124 C 72 120 68 116.21637 68 112 C 68 104 76 96 88 96 C 89.482285 96 91.429492 96.575262 92 97.943359 C 94.525896 104.00055 96 116 96 116 C 96 116 97.474104 104.00055 100 97.943359 C 100.57051 96.575262 102.51771 96 104 96 C 116 96 124 104 124 112 C 124 116.21637 120 120 120 124 C 120 128 124 136 124 136 C 129.4651 120 132 120.43274 132 112 C 132 104 129.86914 100 129.86914 100 C 129.86914 100 132 70.451643 116 56 C 108 60 104 77.808594 104 77.808594 C 104 77.808594 100 76 96 76 C 92 76 88 77.808594 88 77.808594 C 88 77.808594 84 60 76 56 z "
     id="path833" />
  <path
     style="fill:#56595b"
     d="m 76,64 c 0,0 -8,12 -8,28 0,0 8,-8 16,-12 C 80,68 76,64 76,64 Z"
     id="path835"
     inkscape:connector-curvature="0"
     sodipodi:nodetypes="cccc" />
  <path
     style="fill:#f8c18c;stroke:none;stroke-width:1px;stroke-linecap:butt;stroke-linejoin:miter;stroke-opacity:1"
     d="m 96,120 -5.986543,8 h 12.116903 z"
     id="path837"
     inkscape:connector-curvature="0"
     sodipodi:nodetypes="cccc" />
  <path
     style="fill:#56595b"
     d="m 116,64 c 0,0 8,12 8,28 0,0 -8,-8 -16,-12 4,-12 8,-16 8,-16 z"
     id="path835-0"
     inkscape:connector-curvature="0"
     sodipodi:nodetypes="cccc" />
</svg>

<svg xmlns="http://www.w3.org/2000/svg" viewBox="0 0 192 192"><circle cx="96" cy="96" r="88" style="fill:#56595b;stroke:none;opacity:1;stroke-linecap:round;stroke-linejoin:round;isolation:isolate"/><rect width="8" height="8" x="80" y="108" ry="4" style="opacity:1;vector-effect:none;fill:#f8c18c;fill-opacity:1;fill-rule:evenodd;stroke:none;paint-order:stroke fill markers"/><rect width="8" height="8" x="104" y="108" ry="4" style="opacity:1;vector-effect:none;fill:#f8c18c;fill-opacity:1;fill-rule:evenodd;stroke:none;paint-order:stroke fill markers"/><path d="M76 56c-16 14.452-13.87 44-13.87 44S60 104 60 112c0 8.433 2.535 8 8 24 0 0 4-8 4-12s-4-7.784-4-12c0-8 8-16 20-16 1.482 0 3.43.575 4 1.943C94.526 104.001 96 116 96 116s1.474-12 4-18.057c.57-1.368 2.518-1.943 4-1.943 12 0 20 8 20 16 0 4.216-4 8-4 12s4 12 4 12c5.465-16 8-15.567 8-24 0-8-2.13-12-2.13-12S132 70.452 116 56c-8 4-12 21.809-12 21.809S100 76 96 76s-8 1.809-8 1.809S84 60 76 56z" style="fill:#f8c18c"/><path d="M76 64s-8 12-8 28c0 0 8-8 16-12-4-12-8-16-8-16Z" style="fill:#56595b"/><path d="m96 120-5.987 8h12.117z" style="fill:#f8c18c;stroke:none;stroke-width:1px;stroke-linecap:butt;stroke-linejoin:miter;stroke-opacity:1"/><path d="M116 64s8 12 8 28c0 0-8-8-16-12 4-12 8-16 8-16z" style="fill:#56595b"/></svg>
